packages/kaspersky-hexa-ui-icons/src/iconsSVGs/24/ViberColor.svg

<svg width="24" height="24" viewBox="0 0 24 24" fill="none" xmlns="http://www.w3.org/2000/svg">
<path d="M20.5164 2.26264C19.9399 1.73073 17.6104 0.0396256 12.4215 0.0166506C12.4215 0.0166506 6.30251 -0.352343 3.31958 2.38378C1.65911 4.04459 1.07499 6.47473 1.01337 9.48759C0.951759 12.5005 0.872042 18.1467 6.31469 19.6777H6.31991L6.31643 22.0139C6.31643 22.0139 6.28162 22.9597 6.90439 23.1525C7.65769 23.3865 8.09978 22.6676 8.81897 21.8927C9.21373 21.4673 9.75886 20.8425 10.1696 20.3649C13.8919 20.6782 16.7548 19.9621 17.0799 19.8563C17.8315 19.6126 22.0843 19.0678 22.776 13.4219C23.4899 7.60259 22.4306 3.92171 20.5164 2.26264Z" fill="white"/>
<path d="M19.3063 3.43792C18.8189 2.99513 16.7153 1.67336 12.326 1.65422C12.326 1.65422 7.12844 1.31273 4.60536 3.59805C3.2011 4.98456 2.72802 7.04639 2.67615 9.56251C2.62428 12.0786 2.35554 16.8853 6.95786 18.1639C6.95786 18.1639 6.93976 21.7323 6.93767 22.046C6.93767 22.2653 6.97248 22.4153 7.0978 22.4463C7.18796 22.4682 7.32303 22.4216 7.4379 22.307C8.1738 21.568 10.5298 18.7257 10.5298 18.7257C13.6909 18.9322 16.206 18.308 16.4765 18.2196C17.1142 18.0145 20.5636 17.7183 21.1474 13.0028C21.7507 8.14223 20.9257 4.82443 19.3063 3.43792Z" fill="#7360F2"/>
<path d="M11.8436 4.15187C11.6815 4.15074 11.5492 4.2812 11.5481 4.44327C11.547 4.60534 11.6774 4.73763 11.8395 4.73876C13.4017 4.74964 14.6926 5.26415 15.7322 6.27762C16.7622 7.28167 17.2977 8.66557 17.3114 10.4656C17.3126 10.6277 17.445 10.7581 17.607 10.7568C17.7691 10.7556 17.8995 10.6232 17.8983 10.4612C17.8836 8.54017 17.3073 6.99347 16.1419 5.85736C14.9861 4.73067 13.5466 4.16373 11.8436 4.15187Z" fill="white"/>
<path d="M12.066 5.94611C12.0778 5.78447 12.2184 5.66303 12.3801 5.67486C13.6124 5.76505 14.6043 6.18611 15.3268 6.9748C16.0415 7.75571 16.3812 8.72729 16.3566 9.86676C16.3531 10.0288 16.2189 10.1573 16.0568 10.1538C15.8948 10.1503 15.7663 10.0161 15.7698 9.85406C15.7916 8.84925 15.4961 8.02916 14.894 7.37125C14.2938 6.71599 13.4546 6.34198 12.3372 6.2602C12.1756 6.24837 12.0541 6.10775 12.066 5.94611Z" fill="white"/>
<path d="M12.5109 7.52719C12.5193 7.36534 12.6574 7.24098 12.8192 7.24942C13.4248 7.28102 13.9286 7.46431 14.2874 7.8353C14.6448 8.20488 14.8201 8.72117 14.8508 9.34123C14.8588 9.5031 14.7341 9.64083 14.5723 9.64886C14.4104 9.65689 14.2727 9.53218 14.2646 9.37031C14.2383 8.83953 14.0927 8.47819 13.8655 8.24333C13.6397 8.00989 13.2952 7.86196 12.7887 7.83554C12.6268 7.82709 12.5025 7.68904 12.5109 7.52719Z" fill="white"/>
<path d="M12.8621 13.2862C12.8621 13.2862 13.2746 13.321 13.4967 13.0474L13.9298 12.5026C14.1386 12.2325 14.6427 12.0602 15.1363 12.3352C15.5062 12.5461 15.8653 12.7755 16.2123 13.0223C16.5399 13.2632 17.2107 13.823 17.2128 13.823C17.5323 14.0928 17.6061 14.4889 17.3886 14.9066C17.3886 14.9091 17.3868 14.9132 17.3868 14.9153C17.1472 15.3307 16.843 15.7053 16.4856 16.0251C16.4814 16.0272 16.4814 16.0293 16.4776 16.0314C16.167 16.2908 15.862 16.4383 15.5624 16.4738C15.5183 16.4815 15.4734 16.4843 15.4287 16.4822C15.2966 16.4834 15.1652 16.4632 15.0395 16.4223L15.0298 16.408C14.5682 16.2778 13.7975 15.952 12.514 15.2439C11.7713 14.839 11.0642 14.3719 10.4003 13.8477C10.0675 13.5851 9.75013 13.3036 9.44963 13.0046L9.35355 12.9085C9.34276 12.8981 9.33232 12.8873 9.32152 12.8765C9.02253 12.576 8.74103 12.2586 8.47841 11.9258C7.95423 11.262 7.48714 10.555 7.08215 9.81244C6.3741 8.52862 6.04827 7.75861 5.91808 7.29632L5.90381 7.28657C5.863 7.16093 5.8429 7.02949 5.84428 6.89739C5.84185 6.85267 5.84453 6.80782 5.85229 6.76372C5.88965 6.46458 6.03737 6.15929 6.29543 5.84785C6.29752 5.84402 6.29961 5.84402 6.3017 5.83984C6.62136 5.48244 6.99599 5.17832 7.41146 4.93894C7.41355 4.93894 7.41773 4.93685 7.42016 4.93685C7.83789 4.71929 8.23404 4.79308 8.50347 5.11091C8.50556 5.11299 9.06427 5.7838 9.30412 6.11136C9.55101 6.45868 9.78035 6.81815 9.99128 7.18841C10.2663 7.68167 10.094 8.18678 9.82384 8.39495L9.27905 8.82799C9.00405 9.05008 9.04025 9.46259 9.04025 9.46259C9.04025 9.46259 9.84717 12.5165 12.8621 13.2862Z" fill="white"/>
</svg>

<svg xmlns="http://www.w3.org/2000/svg" width="24" height="24" fill="none" viewBox="0 0 24 24"><path fill="#fff" d="M20.5164 2.2626c-.5765-.5319-2.906-2.223-8.0949-2.246 0 0-6.119-.369-9.102 2.3672-1.6604 1.6608-2.2445 4.091-2.3061 7.1038-.0616 3.0129-.1414 8.6591 5.3013 10.1901h.0052l-.0035 2.3362s-.0348.9458.588 1.1386c.7533.234 1.1954-.4849 1.9146-1.2598.3947-.4254.9399-1.0502 1.3506-1.5278 3.7223.3133 6.5852-.4028 6.9103-.5086.7516-.2437 5.0044-.7885 5.6961-6.4344.7139-5.8193-.3454-9.5002-2.2596-11.1593"/><path fill="#7360f2" d="M19.3063 3.438c-.4874-.4429-2.591-1.7646-6.9803-1.7838 0 0-5.1976-.3415-7.7206 1.9439C3.201 4.9846 2.728 7.0464 2.676 9.5625c-.0518 2.5161-.3206 7.3228 4.2818 8.6014 0 0-.0181 3.5684-.0202 3.8821 0 .2193.0348.3693.1601.4003.0902.0219.2252-.0247.3401-.1393.7359-.739 3.0919-3.5813 3.0919-3.5813 3.1611.2065 5.6762-.4177 5.9467-.5061.6377-.2051 4.0871-.5013 4.6709-5.2168.6033-4.8606-.2217-8.1784-1.8411-9.5649"/><path fill="#fff" d="M11.8436 4.1519a.2934.2934 0 1 0-.0041.5869c1.5622.0108 2.8531.5253 3.8927 1.5388 1.03 1.004 1.5655 2.388 1.5792 4.188a.2935.2935 0 0 0 .5869-.0044c-.0147-1.921-.591-3.4677-1.7564-4.6038-1.1558-1.1267-2.5953-1.6937-4.2983-1.7055"/><path fill="#fff" d="M12.066 5.9461a.2934.2934 0 0 1 .3141-.2712c1.2323.0901 2.2242.5112 2.9467 1.2999.7147.781 1.0544 1.7525 1.0298 2.892a.2935.2935 0 0 1-.5868-.0127c.0218-1.0049-.2737-1.825-.8758-2.4829-.6002-.6552-1.4394-1.0292-2.5568-1.111a.2934.2934 0 0 1-.2712-.314"/><path fill="#fff" d="M12.511 7.527a.293.293 0 0 1 .308-.278c.606.032 1.109.215 1.468.586.357.37.533.886.563 1.506a.294.294 0 0 1-.586.029c-.026-.531-.172-.892-.399-1.127-.226-.233-.57-.381-1.077-.408a.294.294 0 0 1-.278-.308m.352 5.759s.413.035.635-.239l.433-.545c.209-.27.713-.442 1.207-.167.37.211.729.44 1.076.687.328.241.998.801 1.001.801.32.27.393.666.176 1.084 0 .003-.002.007-.002.009a4.52 4.52 0 0 1-.901 1.11c-.004.002-.004.004-.008.006q-.466.389-.915.442a.6.6 0 0 1-.134.008 1.22 1.22 0 0 1-.389-.06l-.01-.014c-.462-.13-1.232-.456-2.516-1.164a15 15 0 0 1-2.114-1.396 11.1 11.1 0 0 1-.951-.843l-.096-.096-.032-.032a11.1 11.1 0 0 1-.843-.951 15 15 0 0 1-1.396-2.113c-.708-1.284-1.034-2.054-1.164-2.516l-.014-.01a1.22 1.22 0 0 1-.059-.389.6.6 0 0 1 .008-.134q.056-.449.443-.916c.002-.004.004-.004.006-.008a4.51 4.51 0 0 1 1.11-.901c.002 0 .006-.002.009-.002.418-.218.814-.144 1.083.174.002.002.561.673.801 1.001.247.347.476.707.687 1.077.275.493.103.998-.167 1.207l-.545.433c-.275.222-.239.635-.239.635s.807 3.054 3.822 3.824"/></svg>
